weather-cloudy-clock.svg

<svg fill="currentColor" viewBox="0 0 24 24"><path d="M15 13h1.5v2.82l2.44 1.41-.75 1.3L15 16.69zm3.13-3.67C17.23 6.81 14.83 5 12 5 9.3 5 7 6.65 6 9c-2.76 0-5 2.24-5 5s2.24 5 5 5h3.68c1.13 2.36 3.53 4 6.32 4 3.87 0 7-3.13 7-7 0-3.12-2.04-5.76-4.87-6.67M6 17c-1.66 0-3-1.34-3-3s1.34-3 3-3c.37 0 .73.07 1.06.19A5.004 5.004 0 0 1 12 7c1.63 0 3.07.79 4 2-3.88 0-7 3.14-7 7 0 .34.03.67.08 1zm10 4c-2.76 0-5-2.24-5-5s2.24-5 5-5 5 2.24 5 5-2.24 5-5 5"/></svg>

<svg  viewBox="0 0 24 24" fill="currentColor"><path  d="M15 13H16.5V15.82L18.94 17.23L18.19 18.53L15 16.69V13M18.13 9.33C17.23 6.81 14.83 5 12 5C9.3 5 7 6.65 6 9C3.24 9 1 11.24 1 14S3.24 19 6 19H9.68C10.81 21.36 13.21 23 16 23C19.87 23 23 19.87 23 16C23 12.88 20.96 10.24 18.13 9.33M6 17C4.34 17 3 15.66 3 14S4.34 11 6 11C6.37 11 6.73 11.07 7.06 11.19C7.45 8.82 9.5 7 12 7C13.63 7 15.07 7.79 16 9C12.12 9 9 12.14 9 16C9 16.34 9.03 16.67 9.08 17H6M16 21C13.24 21 11 18.76 11 16S13.24 11 16 11 21 13.24 21 16 18.76 21 16 21Z"/></svg>
